X:1
T:[ID 11-18a]
T:[ID 11-18a]
T:Bezeichnung standardisiert: Gigue Giga
T:Urheber unbekannt Datum in der hier transkribierten schriftlichen Quelle: vermutlich um 1800
C:Urheber unbekannt
C:Datum in der hier transkribierten schriftlichen Quelle: vermutlich um 1800
L:1/8
M:6/8
K:G
V:1 treble 
V:1
 d | BAG efg | d3 (cA).c | (Bd).G (Ac).F | G3 z z d | (BA).G (ef).g | d3 .A.B.c | .B.A.G (de)B | %8
{B} A3 z z A | BAG (Be).^c |{e} (d^c).d A2 f | (gb).f (ef).d | (^cd).e A2 e |"^O)" fda Tg3 | %14
"^O)" fda Tg3 | (fd).f (ge).g | agf bag |{g} fed Ad^c | d3 z2 :: d | (BA).G (dB).d | (fd).f e2 d | %22
 (ce).A .B.A.^G | A3 .e.d.c | (Bd).G .A.G.F | G3 gdB | (ef).g (df).g | (cA).c .B.A.G | %28
 (ef).g (df).g | (cA).c (BG).d | (ec).e dBG | (cA).c BGD | (Ec).B AGF | (GD).G (AD).c | %34
 (BG).d Tc3 | (BG).d Tc3 | (BG).B (cA).c | dcB edc | GFE DGF | G3 z2 :| %40

